svg/timeline_text_outline.svg

<?xml version="1.0" encoding="UTF-8"?><!DOCTYPE svg PUBLIC "-//W3C//DTD SVG 1.1//EN" "http://www.w3.org/Graphics/SVG/1.1/DTD/svg11.dtd"><svg xmlns="http://www.w3.org/2000/svg" xmlns:xlink="http://www.w3.org/1999/xlink" version="1.1" id="mdi-timeline-text-outline" width="24" height="24" viewBox="0 0 24 24"><path d="M5 12C5 13.11 4.11 14 3 14C1.9 14 1 13.11 1 12C1 10.9 1.9 10 3 10C4.11 10 5 10.9 5 12M4 2V8H2V2H4M2 22V16H4V22H2M24 6V18C24 19.11 23.11 20 22 20H10C8.9 20 8 19.11 8 18V14L6 12L8 10V6C8 4.89 8.9 4 10 4H22C23.11 4 24 4.89 24 6M22 6H10V10.83L8.83 12L10 13.17V18H22V6M12 9H20V11H12V9M12 13H18V15H12V13Z" /></svg>

<svg xmlns="http://www.w3.org/2000/svg" viewBox="0 0 24 24"><path d="M5 12c0 1.11-.89 2-2 2a2 2 0 1 1 2-2M4 2v6H2V2zM2 22v-6h2v6zM24 6v12c0 1.11-.89 2-2 2H10a2 2 0 0 1-2-2v-4l-2-2 2-2V6a2 2 0 0 1 2-2h12c1.11 0 2 .89 2 2m-2 0H10v4.83L8.83 12 10 13.17V18h12zM12 9h8v2h-8zm0 4h6v2h-6z"/></svg>
